img/logo-png.svg

<svg width="114" height="138" viewBox="0 0 114 138" fill="none" xmlns="http://www.w3.org/2000/svg">
<g clip-path="url(#clip0_16_176)" filter="url(#filter0_d_16_176)">
<path d="M106.773 48.8684C108.108 58.0099 99.9124 55.575 99.9124 55.575C96.4823 44.1268 90.9941 45.1948 90.9941 45.1948C95.2908 48.9111 95.6157 52.0722 95.6157 52.0722C84.1701 42.4609 68.6083 50.1927 62.6869 53.8236C59.3651 48.2704 52.6494 35.8397 55.0324 30.2011C58.1736 22.811 64.5644 27.04 64.5644 27.04C77.4904 26.7837 76.7683 21.3159 76.7683 21.3159C73.3382 24.477 63.2285 21.3159 63.2285 21.3159C72.0023 21.3159 75.7212 17.0869 75.7212 17.0869C69.186 19.0092 61.8925 10.7648 61.8925 10.7648C59.2207 -5.42499 46.8724 1.45246 46.8724 1.45246C54.5991 -0.12807 52.541 9.56871 52.541 9.56871C42.8646 13.6268 43.7672 20.1198 43.7672 20.1198C46.9085 15.0365 49.5803 14.652 49.5803 14.652C40.7343 29.3894 49.2554 49.8936 51.7828 55.2333C47.1612 59.0351 36.3294 67.4076 31.455 64.5029C25.2087 60.7865 28.7832 53.2256 28.7832 53.2256C28.6387 37.9329 24.0171 38.7872 24.0171 38.7872C26.689 42.8453 24.0171 54.8061 24.0171 54.8061C24.0171 44.4258 20.4426 40.026 20.4426 40.026C22.0674 47.7578 15.0989 56.3866 15.0989 56.3866C1.41467 59.5477 7.22777 74.1569 7.22777 74.1569C5.89184 65.0155 14.0879 67.4504 14.0879 67.4504C17.518 78.8985 23.0062 77.8306 23.0062 77.8306C18.7095 74.1142 18.3846 70.9532 18.3846 70.9532C30.4802 81.1198 47.1973 71.8929 52.2522 68.6464C55.6462 74.4132 61.9648 86.2886 59.6179 91.7991C56.4766 99.1892 50.0858 94.9602 50.0858 94.9602C37.1598 95.131 37.8819 100.599 37.8819 100.599C41.312 97.4378 51.4217 100.599 51.4217 100.599C42.6479 100.599 38.929 104.828 38.929 104.828C45.4642 102.906 52.7577 111.15 52.7577 111.15C55.4295 127.34 67.7779 120.462 67.7779 120.462C60.0511 122.043 62.1092 112.346 62.1092 112.346C71.7856 108.288 70.883 101.795 70.883 101.795C67.7417 106.878 65.0699 107.263 65.0699 107.263C73.7354 92.867 65.7559 72.9181 63.0479 67.0659C67.9584 63.0078 77.8876 55.7459 82.4731 58.4798C88.7194 62.1962 85.1449 69.7571 85.1449 69.7571C85.2894 85.0498 89.9109 84.1955 89.9109 84.1955C87.2391 80.1373 89.9109 68.1766 89.9109 68.1766C89.9109 78.5568 93.4855 82.9567 93.4855 82.9567C91.8607 75.2249 98.8292 66.596 98.8292 66.596C112.586 63.4777 106.773 48.8684 106.773 48.8684Z" fill="url(#paint0_linear_16_176)"/>
</g>
<defs>
<filter id="filter0_d_16_176" x="0" y="0" width="114" height="138" filterUnits="userSpaceOnUse" color-interpolation-filters="sRGB">
<feFlood flood-opacity="0" result="BackgroundImageFix"/>
<feColorMatrix in="SourceAlpha" type="matrix" values="0 0 0 0 0 0 0 0 0 0 0 0 0 0 0 0 0 0 127 0" result="hardAlpha"/>
<feOffset dy="10"/>
<feGaussianBlur stdDeviation="3"/>
<feComposite in2="hardAlpha" operator="out"/>
<feColorMatrix type="matrix" values="0 0 0 0 0 0 0 0 0 0 0 0 0 0 0 0 0 0 0.25 0"/>
<feBlend mode="normal" in2="BackgroundImageFix" result="effect1_dropShadow_16_176"/>
<feBlend mode="normal" in="SourceGraphic" in2="effect1_dropShadow_16_176" result="shape"/>
</filter>
<linearGradient id="paint0_linear_16_176" x1="56.9967" y1="0.00134277" x2="56.9967" y2="121.913" gradientUnits="userSpaceOnUse">
<stop stop-color="#C0B7E8"/>
<stop offset="1" stop-color="#8176AF"/>
</linearGradient>
<clipPath id="clip0_16_176">
<rect width="102" height="122" fill="white" transform="translate(6)"/>
</clipPath>
</defs>
</svg>

<svg width="114" height="138" fill="none" xmlns="http://www.w3.org/2000/svg"><g clip-path="url(#a)" filter="url(#b)"><path d="M106.773 48.868c1.335 9.142-6.86 6.707-6.86 6.707-3.43-11.448-8.919-10.38-8.919-10.38 4.297 3.716 4.622 6.877 4.622 6.877-11.446-9.611-27.008-1.88-32.93 1.752C59.367 48.27 52.65 35.84 55.033 30.2c3.142-7.39 9.532-3.161 9.532-3.161 12.926-.256 12.204-5.724 12.204-5.724-3.43 3.161-13.54 0-13.54 0 8.774 0 12.493-4.23 12.493-4.23-6.535 1.923-13.829-6.321-13.829-6.321-2.671-16.19-15.02-9.313-15.02-9.313C54.6-.128 52.541 9.57 52.541 9.57c-9.676 4.058-8.774 10.55-8.774 10.55 3.141-5.082 5.813-5.467 5.813-5.467-8.846 14.737-.325 35.242 2.203 40.581-4.622 3.802-15.454 12.175-20.328 9.27-6.246-3.717-2.672-11.277-2.672-11.277-.144-15.293-4.766-14.439-4.766-14.439 2.672 4.058 0 16.02 0 16.02 0-10.381-3.574-14.781-3.574-14.781 1.624 7.732-5.344 16.36-5.344 16.36-13.684 3.162-7.871 17.77-7.871 17.77-1.336-9.14 6.86-6.706 6.86-6.706 3.43 11.448 8.918 10.38 8.918 10.38-4.297-3.716-4.621-6.877-4.621-6.877 12.095 10.167 28.812.94 33.867-2.307 3.394 5.767 9.713 17.643 7.366 23.153-3.141 7.39-9.532 3.161-9.532 3.161-12.926.171-12.204 5.639-12.204 5.639 3.43-3.161 13.54 0 13.54 0-8.774 0-12.493 4.229-12.493 4.229 6.535-1.922 13.829 6.322 13.829 6.322 2.671 16.19 15.02 9.312 15.02 9.312-7.727 1.581-5.669-8.116-5.669-8.116 9.677-4.058 8.774-10.551 8.774-10.551-3.141 5.083-5.813 5.468-5.813 5.468 8.665-14.396.686-34.345-2.022-40.197 4.91-4.058 14.84-11.32 19.425-8.586 6.246 3.716 2.672 11.277 2.672 11.277.144 15.293 4.766 14.438 4.766 14.438-2.672-4.058 0-16.018 0-16.018 0 10.38 3.575 14.78 3.575 14.78-1.625-7.732 5.343-16.361 5.343-16.361 13.757-3.118 7.944-17.728 7.944-17.728z" fill="url(#c)"/></g><defs><linearGradient id="c" x1="56.997" y1=".001" x2="56.997" y2="121.913" gradientUnits="userSpaceOnUse"><stop stop-color="#C0B7E8"/><stop offset="1" stop-color="#8176AF"/></linearGradient><clipPath id="a"><path fill="#fff" transform="translate(6)" d="M0 0h102v122H0z"/></clipPath><filter id="b" x="0" y="0" width="114" height="138" filterUnits="userSpaceOnUse" color-interpolation-filters="sRGB"><feFlood flood-opacity="0" result="BackgroundImageFix"/><feColorMatrix in="SourceAlpha" values="0 0 0 0 0 0 0 0 0 0 0 0 0 0 0 0 0 0 127 0" result="hardAlpha"/><feOffset dy="10"/><feGaussianBlur stdDeviation="3"/><feComposite in2="hardAlpha" operator="out"/><feColorMatrix values="0 0 0 0 0 0 0 0 0 0 0 0 0 0 0 0 0 0 0.25 0"/><feBlend in2="BackgroundImageFix" result="effect1_dropShadow_16_176"/><feBlend in="SourceGraphic" in2="effect1_dropShadow_16_176" result="shape"/></filter></defs></svg>
